modules/feathericon/icons/app-menu.svg

<svg width="24" height="24" viewBox="0 0 24 24" xmlns="http://www.w3.org/2000/svg"><path d="M16 16h4v4h-4v-4zm-6 0h4v4h-4v-4zm-6 0h4v4H4v-4zm12-6h4v4h-4v-4zm-6 0h4v4h-4v-4zm-6 0h4v4H4v-4zm12-6h4v4h-4V4zm-6 0h4v4h-4V4zM4 4h4v4H4V4z" fill="#000" fill-rule="evenodd"/></svg>

<?xml version="1.0" encoding="UTF-8"?>
<svg width="24px" height="24px" viewBox="0 0 24 24" version="1.1" xmlns="http://www.w3.org/2000/svg" xmlns:xlink="http://www.w3.org/1999/xlink">
    <!-- Generator: sketchtool 52.2 (67145) - http://www.bohemiancoding.com/sketch -->
    <title>app-menu</title>
    <desc>Created with sketchtool.</desc>
    <g id="web-app" stroke="none" stroke-width="1" fill="none" fill-rule="evenodd">
        <g id="app-menu" fill="#000000">
            <path d="M16,16 L20,16 L20,20 L16,20 L16,16 Z M10,16 L14,16 L14,20 L10,20 L10,16 Z M4,16 L8,16 L8,20 L4,20 L4,16 Z M16,10 L20,10 L20,14 L16,14 L16,10 Z M10,10 L14,10 L14,14 L10,14 L10,10 Z M4,10 L8,10 L8,14 L4,14 L4,10 Z M16,4 L20,4 L20,8 L16,8 L16,4 Z M10,4 L14,4 L14,8 L10,8 L10,4 Z M4,4 L8,4 L8,8 L4,8 L4,4 Z" id="Shape"></path>
        </g>
    </g>
</svg>
